X: 29
T: No_25_Sun_Dance_Song_(h).krn
N: Derived from No_25_Sun_Dance_Song_(h).krn
%%abc-version 2.0
%%abcx-abcm2ps-target-version 5.9.1 (29 Sep 2008)
%%abc-creator hum2abc beta
%%abcx-conversion-date 2019/03/15 08:36:49
%%humdrum-veritas 1617221784
%%humdrum-veritas-data 2409205835
%%linebreak <none>
%%barnumbers 0
L: 1/16
M: 3/4
K: A clef=bass
[K:clef=bass][M:3/4]E2EEE8 ||  
[M:2/4]EE3A,4 | 
C3E (5:4:5DCDB,B, | 
F,F,2E, (3F,2E,2E,2 | 
E,6E,2 ||  
[M:3/4]E2EEE8 ||  
[M:2/4]EE3A,4 | 
C3E (5:4:5DCDB,B, | 
F,F,2E, (3F,2E,2E,2 | 
E,8 | 
F,2A,2- A,2A,2 | 
A,8 | 
C,C,2B,,A,,4 | 
F,2A,2 A,2A,F, | 
A,A,2F,E,4 ||  
[M:3/4]F,E,E,2E,6E,2 ||  
[M:2/4]F,E,E,2E,4 | 
E,8 |]  



